X:194
%%etbk:tnset id:60,pos:1,rep:3x,ant:Box erst ab 2.x
%%etbk:tnset id:263,pos:3,rep:3x,ant:
%%etbk:tnset id:335,pos:2,rep:3x,ant:Box erst ab 2.x
%%etbk:wsite http://www.thesession.org/tunes/display/359
%%etbk:pldat 2016-06-22T16:08,2016-06-20T18:28,2016-06-16T19:07,2016-03-27T15:13,2016-03-05T15:32,2016-02-23T17:32,2015-12-03T18:55,2015-12-02T17:22,2015-12-01T17:32,2015-11-30T18:41,2015-11-26T18:32,2015-11-04T16:06,2015-11-03T16:34,2015-11-02T18:47,2015-11-01T14:54,2015-10-21T18:08,2015-10-14T17:21,2015-10-07T16:42,2015-10-03T16:58,2015-09-28T19:15,2015-09-08T19:13,2015-08-30T16:04,2015-08-27T19:08,2015-08-24T19:04,2015-06-24T19:15,2015-06-22T18:28,2015-05-28T18:05,2015-05-26T18:02,2015-04-23T18:01,2015-04-21T15:09,2015-02-22T13:48,2015-02-18T17:06,2015-02-14T14:56,2015-02-11T16:27,2015-01-28T17:47,2015-01-20T17:30,2014-12-06T16:53,2014-11-17T19:22,2014-10-30T19:02,2014-10-27T19:19,2014-10-11T14:48,2014-09-04T18:32,2014-09-03T18:41,2014-09-02T18:35,2014-09-01T18:38,2014-08-31T13:53,2014-08-28T18:35,2014-08-27T18:50,2014-08-26T16:46,2014-08-25T18:53,2014-08-24T11:47,2014-08-21T19:04,2014-08-20T19:21,2014-08-19T18:58,2014-08-03T15:00,2014-07-31T18:19,2014-07-26T15:13,2014-07-24T19:53,2014-07-22T19:36,2014-07-21T20:23,2014-07-20T11:43,2014-07-18T10:25,2014-07-16T17:47,2014-07-13T15:04,2014-06-25T15:46,2014-06-13T15:43,2014-06-03T16:01,2014-01-22T16:55,2014-01-21T17:45,2014-01-20T18:36,2014-01-19T14:05,2014-01-18T14:38,2014-01-13T17:57,2014-01-09T18:24,2014-01-08T15:18,2014-01-02T11:54,2013-12-29T13:25,2013-10-18T15:11,2013-10-15T17:56,2013-10-11T18:04,2013-10-08T15:42
T: Martin Wynne's No. 2
Z: Piano Box Version by Martin Fleischmann
H: Created 2013-02-19 /  Last Modified 2013-02-19
M: 4/4
L: 1/8
R: reel
K: Dmaj
|: "D"!3!F2AF "A"!2!E2FE | "bm"!1!D2!2!B,{D}B, !4!DB,!1!A,2 | "em"!2!B,!5!E!2!EE !3!FED!2!E | "G"!3!F!5!B!2!BB !4!d!2!BB!1!A |
"D"!3!F2AF "A"!2!E2FE | "bm"!1!D2!2!B,{D}B, !4!DB,!1!A,2 | "em"!2!B,!5!E!2!EE !3!FED!2!E  | "bm"!3!F!5!B-B!4!A !5!B4:|
|: "D"!2!F!5!B!4!A!2!F !4!A2!2!F!1!A | "A"!2!(3Bc!4!d !2!e!4!g "D"!3!fdde | !3!f2af "A"!2!egfe | !1!dfe!1!d !2!B!1!A!2!F!1!E |
"D"!2!F!5!B!4!A!2!F !4!A2!2!F!1!A | "A"!2!(3Bc!4!d !2!e!4!g "D"!3!fdde | !3!f2af "A"!2!egfe | !1!d!2!B!1!A!2!F "bm"!5!B4:|


